packages/sources/icons/src/vitamix/chrome-line.svg

<svg width="16" height="16" viewBox="0 0 16 16" fill="none" xmlns="http://www.w3.org/2000/svg">
<path fill-rule="evenodd" clip-rule="evenodd" d="M1.33333 8C1.33333 11.682 4.318 14.6667 8 14.6667C11.682 14.6667 14.6667 11.682 14.6667 8C14.6667 4.318 11.682 1.33333 8 1.33333C4.318 1.33333 1.33333 4.318 1.33333 8ZM4.02328 4.44533L4.02351 4.44573L4.02328 4.44599V4.44533ZM4.02351 4.44573C5.0343 3.31234 6.48129 2.66494 7.99994 2.66666C9.76578 2.66559 11.4174 3.53948 12.4099 4.99999H7.99994C6.85792 4.99976 5.81481 5.64796 5.30928 6.67199L4.02351 4.44573ZM6.91003 13.222L8.19669 10.994C7.03616 11.0703 5.93611 10.4689 5.37403 9.45065L3.19603 5.67999C2.48228 7.15849 2.48897 8.88327 3.21417 10.3562C3.93937 11.8291 5.30231 12.8861 6.90936 13.222H6.91003ZM8.39338 13.3193C10.0308 13.1988 11.5214 12.3309 12.4345 10.9664C13.3475 9.60188 13.5812 7.89288 13.068 6.33333H10.4947C10.825 6.82634 11.0009 7.40657 11 7.99999C11.0009 8.54449 10.8529 9.07886 10.572 9.54533L8.39338 13.3187V13.3193ZM9.44339 8.83333L9.42873 8.85867C9.12494 9.36494 8.57588 9.67261 7.98548 9.6674C7.39508 9.66219 6.85154 9.34489 6.55673 8.83333L6.54073 8.80533C6.15192 8.10074 6.3221 7.21896 6.94519 6.70966C7.56828 6.20036 8.46629 6.20902 9.07944 6.73025C9.69258 7.25147 9.84572 8.13637 9.44339 8.83333Z" fill="#001018"/>
</svg>

<svg width="16" height="16" fill="none" xmlns="http://www.w3.org/2000/svg"><path fill-rule="evenodd" clip-rule="evenodd" d="M1.333 8a6.667 6.667 0 1 0 13.333 0A6.667 6.667 0 0 0 1.333 8zm2.69-3.555v.001zm0 0A5.32 5.32 0 0 1 8 2.668 5.328 5.328 0 0 1 12.41 5H8a3 3 0 0 0-2.69 1.672L4.023 4.446zm2.887 8.777 1.287-2.228a3 3 0 0 1-2.823-1.543L3.196 5.68a5.335 5.335 0 0 0 3.713 7.542h.001zm1.483.097a5.333 5.333 0 0 0 4.675-6.986h-2.573a2.998 2.998 0 0 1 .077 3.212L8.393 13.32zm1.05-4.486-.014.026a1.666 1.666 0 0 1-2.872-.026l-.016-.028a1.667 1.667 0 1 1 2.902.028z" fill="#001018"/></svg>
